icons/couchdb-icon.svg

<?xml version="1.0" encoding="UTF-8"?>
<svg width="256px" height="168px" viewBox="0 0 256 168" version="1.1" xmlns="http://www.w3.org/2000/svg" xmlns:xlink="http://www.w3.org/1999/xlink" preserveAspectRatio="xMidYMid">
    <g>
        <path d="M207.998979,111.999271 C207.998979,122.608868 202.410682,127.807501 191.999417,127.991833 L191.999417,127.998833 L64.0005833,127.998833 L64.0005833,127.991833 C53.5893178,127.807501 48.0010208,122.608868 48.0010208,111.999271 C48.0010208,101.392007 53.5893178,96.1910404 64.0005833,96.0090416 L64.0005833,95.9997083 L191.999417,95.9997083 L191.999417,96.0090416 C202.410682,96.1910404 207.998979,101.392007 207.998979,111.999271 M191.999417,136.009115 L191.999417,135.999781 L64.0005833,135.999781 L64.0005833,136.009115 C53.5893178,136.191113 48.0010208,141.392079 48.0010208,152.001677 C48.0010208,162.611275 53.5893178,167.807574 64.0005833,167.991906 L64.0005833,167.998906 L191.999417,167.998906 L191.999417,167.989573 C202.410682,167.807574 207.998979,162.608941 207.998979,151.999344 C207.998979,141.389746 202.410682,136.191113 191.999417,136.009115 M231.99949,48.0173541 L231.99949,48.0080208 C221.588224,48.1923529 215.999927,53.3909857 215.999927,64.0005833 L215.999927,151.999344 C215.999927,162.608941 221.588224,167.805241 231.99949,167.989573 L231.99949,167.97324 C247.616388,167.42491 256,151.826678 256,120.000219 L256,80.0001458 C256,58.783284 247.616388,48.3860183 231.99949,48.0173541 M24.0005104,48.0080208 L24.0005104,48.0173541 C8.38361209,48.3860183 0,58.783284 0,80.0001458 L0,120.000219 C0,151.826678 8.38361209,167.422577 24.0005104,167.97324 L24.0005104,167.989573 C34.411776,167.807574 40.0000729,162.608941 40.0000729,151.999344 L40.0000729,64.0005833 C40.0000729,53.3909857 34.411776,48.1923529 24.0005104,48.0080208 M231.99949,40.0000729 C231.99949,13.4772456 218.027581,0.480663537 191.999417,0.0209998633 L191.999417,0 L64.0005833,0 L64.0005833,0.0209998633 C37.9747528,0.480663537 24.0005104,13.4772456 24.0005104,40.0000729 L24.0005104,40.0140728 C39.6174087,40.2894044 48.0010208,48.0873536 48.0010208,64.0005833 C48.0010208,79.9138131 56.3846329,87.7117623 72.0015312,87.9870938 L72.0015312,87.9987604 L184.000802,87.9987604 L184.000802,87.9870938 C199.615367,87.7117623 207.998979,79.9138131 207.998979,64.0005833 C207.998979,48.0873536 216.382591,40.2894044 231.99949,40.0140728 L231.99949,40.0000729 Z" fill="#E42528" fill-rule="nonzero"></path>
    </g>
</svg>

<svg xmlns="http://www.w3.org/2000/svg" viewBox="0 0 256 167.999">
  <path fill="#e42528" d="M207.999 112c0 10.609-5.588 15.807-16 15.992v.007H64.001v-.007c-10.412-.185-16-5.383-16-15.993 0-10.607 5.588-15.808 16-15.99v-.01h127.998v.01c10.412.182 16 5.383 16 15.99m-16 24.01V136H64.001v.01c-10.412.181-16 5.382-16 15.992 0 10.61 5.588 15.806 16 15.99v.007h127.998v-.01c10.412-.181 16-5.38 16-15.99 0-10.609-5.588-15.808-16-15.99m40-87.991v-.01c-10.41.185-16 5.383-16 15.993V152c0 10.61 5.59 15.806 16 15.99v-.016C247.616 167.424 256 151.827 256 120V80c0-21.217-8.384-31.614-24-31.983m-208-.009v.01C8.385 48.385 0 58.782 0 80v40c0 31.827 8.384 47.423 24 47.973v.017c10.412-.182 16-5.381 16-15.99V64c0-10.609-5.588-15.808-16-15.992M232 40C232 13.477 218.027.48 192 .021V0H64v.021c-26.025.46-40 13.456-40 39.98v.013c15.617.275 24.001 8.073 24.001 23.987 0 15.913 8.384 23.71 24 23.986V88h112v-.012c15.614-.275 23.998-8.073 23.998-23.986 0-15.914 8.384-23.712 24-23.987z"/>
</svg>
